**kern	**text
*clefG2	*
*k[f#]	*
*M4/4	*
*MM150	*
=1	=1
1r	.
=2	=2
1r	.
=3	=3
1r	.
=4	=4
1r	.
=5	=5
1r	.
=6	=6
1r	.
=7	=7
1r	.
=8	=8
1r	.
=9	=9
1r	.
=10	=10
1r	.
=11	=11
1r	.
=12	=12
8.bL	さ
16BJk	あ
16BLL	み
16B	ん
16B	み
16BJJ	ん
8b'L	だ
*clefF4	*
8B	は
8c	ちゅ
8BBJ	や
=13	=13
16BBLL	ぎゃ
16BB	く
16A	て
16AJJ	ん
8B'L	ぼ
16BJk	く
32r	.
32B	す
*clefG2	*
8aL	え
8fnJ	し
16cLL	さ
16cJ	ん
8BJ	じゅ
=14	=14
8a'L	わ
8cJ	と
8r	.
16BLL	て
16BJJ	れ
16gLL	きゃ
16gJ	す
8gJ	た
16f#KL	せ
8f#'	お
16f#Jk	た
=15	=15
16eLL	さ
16e	ぶ
16e	か
16eJJ	る
8dL	ぼ
16dL	い
16dJJ	が
*clefF4	*
16BLL	ば
16B	ん
16B	ど
16BJJ	な
8dL	か
*clefG2	*
16dL	ま
16dJJ	に
=16	=16
8g'L	や
8eJ	ほ
*clefF4	*
16BBLL	あ
16BB	る
16G	ば
16GJJ	い
16GLL	と
16GJ	わ
8GJ	ね
16GLL	く
16GJ	ら
8GJ	も
=17	=17
4D'	ど
8r	.
16BLL	た
16BJJ	い
*clefG2	*
16gLL	ば
16g	ん
16g	に
16gJJ	わ
8gL	え
8gJ	てぃ
=18	=18
16.gLL	ふぃ
32gJK	る
8eJ	ど
8r	.
[8e	ひ
8eL]	.
8d	と
8e	み
8dJ	し
=19	=19
8eL	り
16dL	せ
16dJJ	ん
16eLL	げ
16e	ん
16d	で
16dJJ	に
8gL	げ
8d	る
8e'	き
8dJ	か
=20	=20
*^	*
4e	8r	ぼ
.	16r	.
.	32r	.
.	32d	い
4r	4r	.
2r	2r	.
*v	*v	*
=21	=21
1r	.
=22	=22
8r	.
4e	ゆ
16eLL	て
16eJJ	お
8.e'L	ぼ
[16eJk	ちゃ
16eLL]	.
16eJ	ん
8eJ	お
=23	=23
8.eL	じょ
[16eJk	ちゃ
16eLL]	.
16eJ	ん
8e'J	お
8.eL	か
[16eJk	ね
8eL]	.
8e'J	も
=24	=24
8eL	さ
16eL	い
[16eJJ	の
8eL]	.
8e'J	も
16eLL	な
16eJ	ん
8eJ	ま
8e'L	じ
8e'J	か
=25	=25
8eL	あ
16eL	る
[16eJJ	だ
8eL]	.
8eJ	け
8.g'L	や
[16gJk	か
16gLL]	.
16gJ	い
8gJ	で
=26	=26
12eL	や
12e	ん
12e'J	す
4r	.
16eLL	ぼ
32eL	い
32eJJ	ず
8eJ	び
16dLL	あ
16dJ	ん
8BJ	び
=27	=27
16.dLL	しゃ
32d'JJk	す
8r	.
4r	.
16eLL	ら
32eL	い
32eJ	く
[16.e	でぃ
64.eLL]	.
128eJJJK	す
8d	お
16BL	る
16BJJ	ど
=28	=28
16.dLL	め
32dJJk	ん
8r	.
8r	.
[8e	な
8eL]	.
8d	が
8e	い
8dJ	ま
=29	=29
8eL	え
8d	が
8e	み
8dJ	き
8gL	み
8d	だ
8e	れ
8dJ	の
=30	=30
8.eL	し
16eJk	ん
4e	じゃ
2r	.
=31	=31
1r	.
=32	=32
8.eL	し
16eJk	ん
4e	じゃ
2r	.
=33	=33
1r	.
=34	=34
8.eL	し
16eJk	ん
4e	じゃ
2r	.
=35	=35
1r	.
=36	=36
4r	.
8r	.
[8e	か
16eLL]	.
16eJ	ん
8dJ	ち
8eL	が
8dJ	い
=37	=37
8eL	す
8d	ん
8e	な
8dJ	きょ
8aL	お
8g	そ
8a	わ
8gJ	お
=38	=38
8aL	ま
16aL	え
[16bJJ	だ
8b]	.
8r	.
8bL	ろ
8b	き
8b	ろ
8bJ	き
=39	=39
4b	の
8a'L	ろ
16.gL	く
32gJJk	ん
8a'L	ろ
16.gL	く
32gJJk	ん
[8bL	ろ
32bLL]	.
32bJ	る
16eJJ	か
=40	=40
8bL	き
8aJ	な
8gL	ら
16dL	す
16dJJ	え
[8eL	れ
32eLL]	.
32eJ	く
16eJJ	と
8e'L	り
8eJ	く
=41	=41
8eL	ぎ
8d#X	た
8e	あ
8gJ	わ
8bL	ど
16.b'L	ん
32aJJk	す
8aL	と
8a'J	ぷ
=42	=42
8gL	ど
16.g'L	ん
32aJJk	す
8aL	と
*clefF4	*
[8GJ	さ
8GL]	.
16GL	き
16GJJ	み
8GL	の
8GJ	す
=43	=43
8GL	べ
8G	て
8G	を
*clefG2	*
[8gJ	さ
8gL]	.
16gL	ら
16gJJ	け
16gLL	だ
16gJ	し
8gJ	て
=44	=44
8gL	み
8f#	せ
8g	ろ
8aJ	よ
8bL	ろ
8b	き
8b	ろ
8bJ	き
=45	=45
4b	の
8aL	ろ
16.gL	く
32gJJk	ん
8aL	ろ
16.gL	く
32gJJk	ん
[4b	ろ
=46	=46
8.bL_	.
32bLL]	.
32bJJJ	る
4r	.
8ddL	さ
8fn'J	あ
*clefF4	*
8A'L	に
16BBL	し
16BBJJ	ん
=47	=47
8A'L	げ
8BBJ	ぽ
*clefG2	*
8g#XL	い
16dL	きょ
16B-XJJ	く
16g#LL	か
16gn	い
16fn	て
16b-XJJ	る
*clefF4	*
8BBL	ど
16BBL	い
16BBJJ	ん
=48	=48
16GLL	ふ
16D	え
16BB	て
16GJJ	る
16BKL	ち
8B	め
16BJk	ど
*clefG2	*
16gLL	あ
16g	る
16g	け
16gJJ	ど
16f#LL	に
16f#	ん
16f#	き
16f#JJ	わ
=49	=49
16eLL	そ
16e	ん
16e	な
16eJJ	に
16dLL	な
16d	い
16d	か
16dJJ	ら
*clefF4	*
16BLL	い
16B	ろ
16B	い
16BJJ	ろ
16dLL	た
*clefG2	*
16d	い
16d	へ
16dJJ	ん
=50	=50
16.gLL	で
32gJK	す
8eJ	ね
*clefF4	*
8BB'L	は
16BBL	き
16BBJJ	り
8GL	ゆ
16GL	な
16GJJ	よ
16GLL	と
16GJ	く
8GJ	め
=51	=51
16GLL	あ
16G	い
16E	こ
16EJJ	ん
8B'L	は
16BL	き
16BJJ	り
*clefG2	*
16gLL	み
16g	せ
16g	な
16gJJ	い
8g'L	じ
16gL	しゃ
16gJJ	の
=52	=52
16gLL	あ
16g	い
16e	こ
16eJJ	ん
8r	.
[8e	い
8eL]	.
8d	と
8e	し
8dJ	こ
=53	=53
8eL	い
8d	て
8e	じ
8dJ	い
8gL	し
8d	き
8e	ま
8dJ	だ
=54	=54
*^	*
2e	4r	ぼ
.	16r	.
.	32r	.
.	32B	い
.	8r	.
2r	2r	.
*v	*v	*
=55	=55
1r	.
=56	=56
8.B'L	ぶ
[16eJk	ちゃ
8eL]	.
8eJ	け
8eL	ど
16eL	ん
[16eJJ	な
8eL]	.
8eJ	に
=57	=57
8eL	か
16eL	し
[16eJJ	こ
8eL]	.
8eJ	く
8eL	あ
16eL	ざ
[16eJJ	と
8eL]	.
8eJ	く
=58	=58
8.e'L	や
[16eJk	た
16e]	.
16r	.
8e	て
8eL	じゅ
16eL	ね
16eJJ	ん
8eL	ご
8eJ	に
=59	=59
8eL	め
8e	い
8e	く
8eJ	わ
[8gL	お
32gLL]	.
32gJ	ち
[16gJJ	て
16.gLL]	.
32gJK	ん
8gJ	だ
=60	=60
4e'	よ
4r	.
16eLL	ぼ
32eL	い
32eJJ	ず
8eJ	び
16dLL	あ
16dJ	ん
8BJ	び
=61	=61
8dL	しゃ
8d'J	す
4r	.
16eLL	ら
32eL	い
32eJ	く
[16.e	でぃ
64.eLL]	.
128eJJJK	す
8d	お
16BL	る
16BJJ	ど
=62	=62
16.dLL	め
32dJJk	ん
8r	.
8r	.
[8e	い
8eL]	.
8d	き
8e	ぬ
8dJ	く
=63	=63
8eL	た
8d	め
8e	だ
8dJ	き
8gL	め
8dJ	ろ
16eLL	て
32eL	い
32eJJ	く
8dJ	あ
=64	=64
8.eL	せ
16eJk	る
4e	ふぃ
2r	.
=65	=65
1r	.
=66	=66
8.eL	せ
16eJk	る
4e	ふぃ
2r	.
=67	=67
1r	.
=68	=68
8.eL	せ
16eJk	る
4e	ふぃ
2r	.
=69	=69
1r	.
=70	=70
4r	.
8r	.
[8e	し
8eL]	.
8d	ぬ
8e	ん
8dJ	じゃ
=71	=71
8eL	ね
8d	え
8e	ぞ
8dJ	お
8aL	た
8g	が
8a	い
8gJ	に
=72	=72
16g'KL	ん
[8.aJ	な
8.a]	.
16r	.
8bL	ろ
8b	き
8b	ろ
8bJ	き
=73	=73
4b	の
8aL	ろ
16gL	く
16gJJ	ん
8aL	ろ
16gL	く
16gJJ	ん
[8bL	ろ
32bLL]	.
32bJ	る
16eJJ	う
=74	=74
8b'L	す
8a	ぺ
8g	ら
8dJ	い
8eL	ら
16eL	ぶ
16eJJ	そ
8eL	ん
8eJ	ぐ
=75	=75
8eL	で
8d#X	も
8e	い
8gJ	い
8bL	ど
16.b'L	ん
32aJJk	す
8aL	と
8a'J	ぷ
=76	=76
8gL	ど
16.g'L	ん
32aJJk	す
8aL	と
*clefF4	*
[8GJ	さ
8GL]	.
16GL	め
16GJJ	の
16GLL	ま
16G	え
16G	の
16GJJ	あ
=77	=77
8G'L	の
8G	こ
8G	を
*clefG2	*
[8gJ	う
8gL]	.
16gL	ち
16gJJ	ぬ
8gL	い
8gJ	て
=78	=78
8gL	み
8f#	せ
8g	ろ
8a'J	よ
8bL	ろ
8b	き
8b	ろ
8bJ	き
=79	=79
4b	の
8aL	ろ
16gL	く
16gJJ	ん
4a'	ろ
8gL	く
8gJ	ん
=80	=80
[4.b	ろ
16.bLL]	.
32bJJk	る
2r	.
=81	=81
1r	.
=82	=82
1r	.
=83	=83
1r	.
=84	=84
1r	.
=85	=85
1r	.
=86	=86
1r	.
=87	=87
1r	.
=88	=88
1r	.
=89	=89
4r	.
8eL	お
8eJ	ちゃ
8eL	を
8dJ	に
8eL	ご
16eL	し
[16eJJ	て
=90	=90
8eL]	.
8d	ちゃ
8e	ま
8eJ	ん
8eL	ぞ
8dJ	く
8eL	で
16eL	き
[16eJJ	な
=91	=91
16.eLL]	.
32eK	い
*clefF4	*
16D	す
16DJJ	た
8BL	じ
16BL	お
[16BJJ	に
8BL]	.
8BJ	は
8BL	こ
16BL	ば
[16AJJ	れ
=92	=92
8AL]	.
8GJ	た
8.F#L	す
[16GJk	ろ
8GL]	.
8F#	と
8E	こ
8F#J	お
=93	=93
8GL	と
8A'J	わ
*clefG2	*
8bL	あ
16bL	ん
16aJJ	し
8a'L	ん
8gJ	ふ
8bL	あ
16bL	ん
16aJJ	し
=94	=94
8a'L	ん
8gJ	ぷ
8.b'L	れ
[16aJk	しゃ
8aL]	.
8gJ	で
8.a'L	い
[16bJk	ぱ
=95	=95
16.bLL]	.
32bJJk	い
8r	.
8eL	じ
8eJ	つ
8eL	わ
8dJ	き
8.eL	の
[16eJk	か
=96	=96
8eL]	.
8eJ	ら
8ddL	か
16ddL	ぜ
[16ddJJ	で
8ddL]	.
8dd	こ
8dd	え
8bJ	が
=97	=97
8ddL	で
8ddJ	ま
[8eeL	せ
32eeKL]	.
16.ee'JJ	ん
2r	.
=98	=98
4e'	は
4r	.
2r	.
=99	=99
4e'	は
4r	.
2r	.
=100	=100
4e'	は
4r	.
2r	.
=101	=101
4e'	は
4r	.
2r	.
=102	=102
1r	.
=103	=103
2r	.
4e	は
4r	.
=104	=104
2r	.
8r	.
16BLL	ね
16BJJ	ご
8.gL	と
[16f#Jk	わ
=105	=105
8f#L]	.
8eJ	ね
8.b-XL	て
[16aJk	い
8aL]	.
8gJ	え
8.eL	べ
16eJk	い
=106	=106
4e	び
4r	.
4r	.
8.eL	べ
16eJk	い
=107	=107
4e	び
4r	.
4r	.
8.eL	べ
16eJk	い
=108	=108
4e	び
4r	.
4r	.
8.eL	べ
16eJk	い
=109	=109
4e	び
4r	.
2r	.
=110	=110
1r	.
=111	=111
2r	.
8r	.
4e	し
8d	ぬ
=112	=112
8eL	ん
8d	じゃ
8e	ね
8dJ	え
8eL	ぞ
8d	お
8a	た
8gJ	が
=113	=113
14.aLL	い
14.g	に
14gJ	ん
[7.aJ	な
4a]	.
4r	.
=114	=114
4r	.
8bL	ろ
8bJ	き
8bL	ろ
8bJ	き
4b	の
=115	=115
8aL	ろ
16.gL	く
32gJJk	ん
8aL	ろ
16.gL	く
32gJJk	ん
[8bL	ろ
32bLL]	.
32bJ	る
16eJJ	か
8bL	き
8aJ	な
=116	=116
8gL	ら
16dL	す
16dJJ	え
[8eL	れ
32eLL]	.
32eJ	く
16eJJ	と
8e'L	り
8e	く
8e	ぎ
8d#XJ	た
=117	=117
8eL	あ
8gJ	わ
8bL	ど
16.b'L	ん
32aJJk	す
8aL	と
8a'J	ぷ
8gL	ど
16.g'L	ん
32aJJk	す
=118	=118
8a	と
*clefF4	*
4G	さ
16GLL	き
16GJJ	み
8GL	の
8G	す
8G	べ
8GJ	て
=119	=119
8G	を
*clefG2	*
4g	さ
16gLL	ら
16gJJ	け
16gLL	だ
16gJ	し
8gJ	て
8gL	み
8f#J	せ
=120	=120
8gL	ろ
8a	よ
8b	ろ
8bJ	き
8bL	ろ
8bJ	き
4b	の
=121	=121
8aL	ろ
16.gL	く
32gJJk	ん
8aL	ろ
16.gL	く
32gJJk	ん
[4.b	ろ
16.bLL]	.
32bJJk	る
=122	=122
4r	.
8bL	ろ
8gJ	き
8bL	ろ
8ccJ	き
[4b	の
=123	=123
8b]	.
8r	.
4r	.
2r	.
=124	=124
4r	.
8aL	ろ
16gL	く
16gJJ	ん
8aL	ろ
16gL	く
16gJJ	ん
[4b	ろ
=125	=125
8.bL_	.
32bLL]	.
32bJJJ	る
4r	.
2r	.
=126	=126
1r	.
=127	=127
1r	.
=128	=128
8r	.
4e	し
8d	ぬ
8eL	ん
8d	じゃ
8e	ね
8dJ	え
=129	=129
8e	ぞ
4c	し
8c	ぬ
8cL	ん
8c	じゃ
8B	ね
8BJ	ぞ
=130	=130
8r	.
4e	し
8d	に
8eL	た
8d	か
8e	ね
8dJ	の
=131	=131
8eL	わ
8d	お
8a	た
8gJ	が
8aL	い
16.gL	さ
32gJJk	ん
[4a	ま
=132	=132
1a]	.
==	==
*-	*-
